X: 1
T:Keswick Bonny Lasses
M:4/4
O:England
A:North-West
R:Hornpipe
K:D
(3ABc|\
d2fd dcBA| Bcdc BAGF| G2BA GFED| C2A,2 A,2(3ABc|\
d2fd dcBA| Bcdc BAGF| GABc dABG| F2D2 D2::AG|\
FDFA dAGF| GEGB ecAG| FDFA dAGF| G2E2 E2(3ABc|\
d2fd dcBA| Bcdc BAGF| GABc dABG| F2D2 D2:|
